; HEADER_BLOCK_START
; generated by Creality_Print V6.1.2.2458 on 2025-06-19 at 10:38:17
; total layer number: 55
; filament_density: 1.24
; filament_diameter: 1.75
; max_z_height: 11.00
; HEADER_BLOCK_END

; MINX = 44.18
; MINY = 58.87
; MINZ = 0.00
; MAXX = 175.82
; MAXY = 161.13
; MAXZ = 11.06

; THUMBNAIL_BLOCK_START

;
; THUMBNAIL_BLOCK_END

; THUMBNAIL_BLOCK_START

;
; THUMBNAIL_BLOCK_END

; external perimeters extrusion width = 0.42mm
; perimeters extrusion width = 0.45mm
; infill extrusion width = 0.45mm
; solid infill extrusion width = 0.42mm
; top infill extrusion width = 0.42mm
; support material extrusion width = 0.42mm
; first layer extrusion width = 0.50mm

; EXECUTABLE_BLOCK_START
EXCLUDE_OBJECT_DEFINE NAME=piZwSensor_june18_revC_id_0_copy_0 CENTER=110,110 POLYGON=[[44.1783,101.181],[44.2117,100.817],[44.3187,100.445],[44.5043,100.087],[44.764,99.767],[91.5794,59.2464],[91.722,59.1347],[91.877,59.0409],[92.0422,58.9666],[92.2151,58.9127],[92.3933,58.8801],[92.5741,58.8691],[125.574,58.8691],[174.572,58.8691],[174.767,58.8845],[174.958,58.9303],[175.139,59.0054],[175.306,59.1079],[175.456,59.2352],[175.583,59.3844],[175.685,59.5516],[175.761,59.7329],[175.806,59.9236],[175.822,60.1191],[175.822,128.619],[175.806,128.815],[172.41,148.297],[172.075,150.057],[171.691,151.323],[171.177,152.59],[170.526,153.839],[169.739,155.049],[168.816,156.198],[167.767,157.265],[166.601,158.23],[165.335,159.073],[163.989,159.782],[162.585,160.345],[161.146,160.757],[159.696,161.017],[158.256,161.131],[156.848,161.105],[155.49,160.951],[154.194,160.683],[45.8143,130.336],[45.4421,130.229],[45.0839,130.043],[44.764,129.783],[44.5043,129.464],[44.3187,129.105],[44.2117,128.733],[44.1783,128.369],[44.1783,101.181]]
M73 P0 R42
M106 S0
M106 P2 S0
;TYPE:Custom
START_PRINT EXTRUDER_TEMP=220 BED_TEMP=50
T0
M204 S2000
M104 S220
G1 Z3 F600
M83
G92 E0
G1 Z1 F600
G90
G21
M83 ; use relative distances for extrusion
G1 E-.8 F2400
M106 S0
;LAYER_CHANGE
;Z:0.2
;HEIGHT:0.2
;BEFORE_LAYER_CHANGE
;0.2
G92 E0

;AFTER_LAYER_CHANGE
;0.2
;_SET_FAN_SPEED_CHANGING_LAYER
SET_VELOCITY_LIMIT ACCEL=1000 ACCEL_TO_DECEL=1000
SET_VELOCITY_LIMIT SQUARE_CORNER_VELOCITY=20
; printing object piZwSensor_june18_revC id:0 copy 0
EXCLUDE_OBJECT_START NAME=piZwSensor_june18_revC_id_0_copy_0
G1 Z.4 F30000
G1 X65.435 Y89.812
G1 Z.2
G1 E.8 F2400
;TYPE:Support
;WIDTH:0.5
G1 F3600
G3 X68.02 Y99.566 I-.285 J5.295 E.48167
G2 X66.2 Y98.731 I-1.878 J1.695 E.07433
G1 X56.455 Y98.731 E.35186
G3 X56.124 Y98.124 I1.214 J-1.056 E.02518
G1 X55.743 Y98.731 E.02589
G1 X48.897 Y98.731 E.24717
G3 X56.087 Y94.759 I3.442 J-2.263 E.49011
G3 X57.955 Y92.726 I5.238 J2.938 E.10057
G3 X60.651 Y92.299 I2.269 J5.595 E.09945
G3 X65.367 Y89.809 I4.5 J2.813 E.20171
G1 X69.879 Y97.037 F30000
G1 F3600
G1 X69.879 Y93.855 E.11488
G2 X69.371 Y92.596 I-6.939 J2.068 E.04908
G1 X69.371 Y97.614 E.18117
G3 X68.863 Y98.317 I-2.193 J-1.049 E.03148
G1 X68.863 Y91.894 E.23188
G2 X68.355 Y91.404 I-1.604 J1.152 E.02564
G1 X68.355 Y98.809 E.26738
G3 X67.847 Y98.855 I-.264 J-.089 E.02325
G1 X67.847 Y91.027 E.28264
G2 X67.339 Y90.724 I-1.087 J1.245 E.02146
G1 X67.339 Y98.566 E.28313
G2 X66.831 Y98.4 I-.798 J1.585 E.01936
G1 X66.831 Y90.506 E.28501
G2 X66.324 Y90.358 I-.661 J1.323 E.0192
G1 X66.324 Y98.328 E.28778
G2 X65.816 Y98.32 I-.308 J3.171 E.01836
G1 X65.816 Y90.242 E.29166
G2 X65.308 Y90.218 I-3.614 J72.165 E.01836
G1 X65.308 Y98.32 E.29252
G1 X64.8 Y98.32 E.01834
G1 X64.8 Y90.219 E.29249
G1 X64.292 Y90.288 E.0185
G1 X64.292 Y98.32 E.29001
G1 X63.784 Y98.32 E.01834
G1 X63.784 Y90.408 E.28566
G1 X63.276 Y90.573 E.01928
G1 X63.276 Y98.32 E.27969
G1 X62.768 Y98.32 E.01834
G1 X62.768 Y90.835 E.27026
G2 X62.261 Y91.155 I.628 J1.557 E.0218
G1 X62.261 Y98.32 E.25868
G1 X61.753 Y98.32 E.01834
G1 X61.753 Y91.561 E.24402
G2 X61.245 Y92.144 I1.347 J1.686 E.02806
G1 X61.245 Y98.32 E.22299
G1 X60.737 Y98.32 E.01834
G1 X60.737 Y92.729 E.20185
G1 X60.229 Y92.646 E.01858
G1 X60.229 Y98.32 E.20485
G1 X59.721 Y98.32 E.01834
G1 X59.721 Y92.651 E.20469
G2 X59.213 Y92.699 I-.143 J1.179 E.01857
G1 X59.213 Y98.32 E.20294
G1 X58.706 Y98.32 E.01834
G1 X58.706 Y92.84 E.19785
G2 X58.198 Y93.063 I.252 J1.266 E.02018
G1 X58.198 Y98.32 E.18981
G1 X57.69 Y98.32 E.01834
G1 X57.69 Y93.367 E.17883
G1 X57.182 Y93.798 E.02405
G1 X57.182 Y98.32 E.16327
G1 X56.674 Y98.32 E.01834
G1 X56.674 Y94.47 E.13899
G1 X56.166 Y95.566 E.04361
G1 X56.166 Y97.282 E.06194
G1 X55.658 Y98.092 E.03451
G1 X55.658 Y94.85 E.11704
G2 X55.15 Y94.084 I-1.932 J.73 E.03345
G1 X55.15 Y98.32 E.15292
G1 X54.643 Y98.32 E.01834
G1 X54.643 Y93.577 E.17124
G2 X54.135 Y93.255 I-.961 J.952 E.0219
G1 X54.135 Y98.32 E.18288
G1 X53.627 Y98.32 E.01834
G1 X53.627 Y93.02 E.19135
G2 X53.119 Y92.849 I-.63 J1.028 E.01952
G1 X53.119 Y98.32 E.19754
G1 X52.611 Y98.32 E.01834
G1 X52.611 Y92.792 E.1996
G2 X52.103 Y92.783 I-.272 J1.109 E.01849
G1 X52.103 Y98.32 E.19991
G1 X51.595 Y98.32 E.01834
G1 X51.595 Y92.84 E.19784
G2 X51.088 Y92.994 I.083 J1.19 E.01932
G1 X51.088 Y98.32 E.1923
G1 X50.58 Y98.32 E.01834
G1 X50.58 Y93.208 E.18457
G1 X50.072 Y93.527 E.02165
G1 X50.072 Y98.32 E.17306
G1 X49.564 Y98.32 E.01834
G1 X49.564 Y94.01 E.15562
G2 X49.056 Y94.731 I1.328 J1.474 E.03212
G1 X49.056 Y98.526 E.137
G1 E-.56 F2400
;WIPE_START
G1 F3600
G1 X49.056 Y96.526 E-.24
;WIPE_END
G1 X52.881 Y103.131 Z.6 F30000
G1 X68.607 Y130.291 Z.6
G1 Z.2
G1 E.8 F2400
G1 F3600
G3 X60.763 Y137.215 I-3.35 J4.11 E.66415
G3 X56.105 Y135.073 I-.771 J-4.46 E.19682
G3 X48.938 Y130.819 I-3.675 J-1.973 E.48611
G1 X55.84 Y130.819 E.24922
G1 X56.09 Y131.235 E.0175
G1 X56.405 Y130.819 E.01883
G1 X66.201 Y130.819 E.35368
G2 X68.063 Y129.932 I-.054 J-2.512 E.07674
G1 X68.55 Y130.253 E.02104
G1 X69.879 Y136.677 F30000
G1 F3600
G1 X69.879 Y132.707 E.14335
M73 P0 R41
G2 X69.371 Y131.749 I-2.897 J.922 E.03936
M73 P0 R41
G1 X69.371 Y137.162 E.19543
G3 X68.863 Y137.807 I-2.031 J-1.075 E.02982
G1 X68.863 Y131.103 E.24206
G1 X68.355 Y130.619 E.02534
G1 X68.355 Y138.293 E.2771
G1 X67.847 Y138.629 E.02199
G1 X67.847 Y130.696 E.28646
G3 X67.339 Y130.985 I-1.178 J-1.48 E.02118
G1 X67.339 Y138.899 E.28576
G1 X66.831 Y139.117 E.01995
G1 X66.831 Y131.152 E.28758
G3 X66.324 Y131.222 I-.499 J-1.76 E.01857
G1 X66.324 Y139.237 E.2894
G3 X65.816 Y139.328 I-.504 J-1.351 E.01873
G1 X65.816 Y131.23 E.29237
G1 X65.308 Y131.23 E.01834
G1 X65.308 Y139.351 E.2932
G3 X64.8 Y139.325 I-.182 J-1.41 E.01846
G1 X64.8 Y131.23 E.29225
G1 X64.292 Y131.23 E.01834
G1 X64.292 Y139.256 E.28977
G3 X63.784 Y139.109 I.151 J-1.471 E.0192
G1 X63.784 Y131.23 E.28445
G1 X63.276 Y131.23 E.01834
G1 X63.276 Y138.926 E.27785
G1 X62.768 Y138.652 E.02083
G1 X62.768 Y131.23 E.26796
G1 X62.261 Y131.23 E.01834
G1 X62.261 Y138.295 E.25506
G3 X61.753 Y137.84 I.998 J-1.625 E.02475
G1 X61.753 Y131.23 E.23863
G1 X61.245 Y131.23 E.01834
G1 X61.245 Y137.22 E.21625
G1 X60.973 Y136.764 E.01915
G1 X60.737 Y136.803 E.00865
G1 X60.737 Y131.23 E.20119
G1 X60.229 Y131.23 E.01834
G1 X60.229 Y136.886 E.20419
G3 X59.721 Y136.893 I-.27 J-1.151 E.01848
G1 X59.721 Y131.23 E.20444
G1 X59.213 Y131.23 E.01834
G1 X59.213 Y136.855 E.20309
G1 X58.706 Y136.714 E.01903
G1 X58.706 Y131.23 E.19801
G1 X58.198 Y131.23 E.01834
G1 X58.198 Y136.504 E.19042
G3 X57.69 Y136.216 I.402 J-1.299 E.02126
G1 X57.69 Y131.23 E.18001
G1 X57.182 Y131.23 E.01834
G1 X57.182 Y135.785 E.16444
G3 X56.674 Y135.142 I5.781 J-5.09 E.02959
G1 X56.674 Y131.23 E.14124
G1 X56.166 Y131.815 E.02795
G1 X56.166 Y134.475 E.09603
G1 X56.065 Y134.342 E.00603
G1 X55.658 Y135.017 E.02847
G1 X55.658 Y131.315 E.13367
G1 X55.15 Y131.23 E.01859
G1 X55.15 Y135.712 E.16181
G3 X54.643 Y136.176 I-1.308 J-.923 E.02503
G1 X54.643 Y131.23 E.17855
G1 X54.135 Y131.23 E.01834
G1 X54.135 Y136.514 E.19075
G1 X53.627 Y136.716 E.01974
G1 X53.627 Y131.23 E.19805
G1 X53.119 Y131.23 E.01834
G1 X53.119 Y136.852 E.20299
G1 X52.611 Y136.936 E.01858
G1 X52.611 Y131.23 E.20599
G1 X52.103 Y131.23 E.01834
G1 X52.103 Y136.912 E.20514
G3 X51.595 Y136.844 I-.099 J-1.188 E.01865
G1 X51.595 Y131.23 E.20268
G1 X51.088 Y131.23 E.01834
G1 X51.088 Y136.703 E.19759
G3 X50.58 Y136.458 I.302 J-1.276 E.02051
G1 X50.58 Y131.23 E.18875
G1 X50.072 Y131.23 E.01834
G1 X50.072 Y136.126 E.17677
G3 X49.564 Y135.657 I.813 J-1.389 E.02517
G1 X49.564 Y131.23 E.15981
G1 X49.145 Y131.23 E.01512
G1 X49.056 Y131.423 E.00767
G1 X49.056 Y135.329 E.14101
G1 E-.56 F2400
;WIPE_START
G1 F3600
G1 X49.056 Y133.329 E-.24
;WIPE_END
G1 X56.499 Y131.64 Z.6 F30000
G1 X136.637 Y113.453 Z.6
G1 Z.2
G1 E.8 F2400
G1 F3600
G3 X139.372 Y114.804 I-1.705 J6.896 E.11098
G1 X139.372 Y121.728 E.25
G3 X136.569 Y113.446 I-3.412 J-3.46 E.70994
G1 X138.948 Y121.816 F30000
G1 F3600
G1 X138.948 Y114.985 E.24664
G2 X138.44 Y114.568 I-1.321 J1.09 E.02389
G1 X138.44 Y121.963 E.26702
G1 X137.933 Y122.247 E.021
G1 X137.933 Y114.287 E.2874
G2 X137.425 Y114.074 I-.8 J1.193 E.02001
G1 X137.425 Y122.458 E.30274
G3 X136.917 Y122.624 I-.678 J-1.217 E.01941
G1 X136.917 Y113.91 E.31463
G2 X136.409 Y113.842 I-1.102 J6.333 E.0185
G1 X136.409 Y122.687 E.31934
G3 X135.901 Y122.718 I-.333 J-1.285 E.01849
G1 X135.901 Y113.812 E.32155
G2 X135.393 Y113.849 I.15 J5.573 E.01839
G1 X135.393 Y122.682 E.31894
G3 X134.885 Y122.582 I.002 J-1.351 E.0188
G1 X134.885 Y113.942 E.31197
G2 X134.378 Y114.089 I1.168 J4.982 E.0191
G1 X134.378 Y122.445 E.30171
G1 X133.87 Y122.197 E.02042
G1 X133.87 Y114.33 E.28405
G2 X133.362 Y114.641 I.911 J2.058 E.02156
G1 X133.362 Y121.882 E.26147
G3 X132.854 Y121.473 I.793 J-1.503 E.0237
G1 X132.854 Y115.058 E.23161
G2 X132.346 Y115.634 I5.949 J5.755 E.02775
G1 X132.346 Y120.903 E.19024
G3 X131.838 Y119.981 I2.706 J-2.091 E.03817
G1 X131.838 Y116.071 E.14118
G1 E-.56 F2400
;WIPE_START
G1 F3600
G1 X131.838 Y118.071 E-.24
;WIPE_END
G1 X133.725 Y110.675 Z.6 F30000
G1 X136.637 Y99.262 Z.6
G1 Z.2
G1 E.8 F2400
G1 F3600
G3 X139.372 Y100.613 I-1.705 J6.896 E.11098
G1 X139.372 Y107.537 E.25
G3 X136.569 Y99.255 I-3.412 J-3.46 E.70994
G1 X138.948 Y107.625 F30000
G1 F3600
G1 X138.948 Y100.794 E.24664
G2 X138.44 Y100.377 I-1.321 J1.09 E.02389
G1 X138.44 Y107.772 E.26702
G1 X137.933 Y108.056 E.021
G1 X137.933 Y100.096 E.2874
G2 X137.425 Y99.883 I-.8 J1.193 E.02001
G1 X137.425 Y108.267 E.30274
G3 X136.917 Y108.433 I-.678 J-1.217 E.01941
G1 X136.917 Y99.719 E.31463
G2 X136.409 Y99.651 I-1.102 J6.333 E.0185
G1 X136.409 Y108.496 E.31934
G3 X135.901 Y108.527 I-.333 J-1.285 E.01849
G1 X135.901 Y99.621 E.32155
G2 X135.393 Y99.658 I.15 J5.573 E.01839
G1 X135.393 Y108.491 E.31894
G3 X134.885 Y108.392 I.002 J-1.351 E.0188
G1 X134.885 Y99.751 E.31197
G2 X134.378 Y99.898 I1.168 J4.982 E.0191
G1 X134.378 Y108.255 E.30171
G1 X133.87 Y108.006 E.02042
G1 X133.87 Y100.139 E.28405
G2 X133.362 Y100.45 I.911 J2.058 E.02156
G1 X133.362 Y107.691 E.26147
G3 X132.854 Y107.282 I.793 J-1.503 E.0237
G1 X132.854 Y100.867 E.23161
G2 X132.346 Y101.444 I5.951 J5.756 E.02774
G1 X132.346 Y106.712 E.19024
G3 X131.838 Y105.79 I2.706 J-2.091 E.03817
G1 X131.838 Y101.88 E.14118
G1 E-.56 F2400
;WIPE_START
G1 F3600
G1 X131.838 Y103.88 E-.24
;WIPE_END
G1 X133.725 Y96.484 Z.6 F30000
G1 X136.637 Y85.071 Z.6
G1 Z.2
G1 E.8 F2400
G1 F3600
G3 X139.372 Y86.422 I-1.705 J6.896 E.11098
G1 X139.372 Y93.346 E.25
G3 X136.569 Y85.064 I-3.412 J-3.46 E.70994
M73 P1 R41
G1 X138.948 Y93.435 F30000
M73 P1 R41
G1 F3600
G1 X138.948 Y86.604 E.24664
G2 X138.44 Y86.186 I-1.321 J1.09 E.02389
G1 X138.44 Y93.582 E.26702
G1 X137.933 Y93.865 E.021
G1 X137.933 Y85.905 E.2874
G2 X137.425 Y85.692 I-.8 J1.193 E.02001
G1 X137.425 Y94.077 E.30274
G3 X136.917 Y94.242 I-.678 J-1.217 E.01941
G1 X136.917 Y85.528 E.31463
G2 X136.409 Y85.461 I-1.102 J6.334 E.0185
G1 X136.409 Y94.305 E.31934
G3 X135.901 Y94.336 I-.333 J-1.285 E.01849
G1 X135.901 Y85.43 E.32155
G2 X135.393 Y85.467 I.15 J5.572 E.01839
G1 X135.393 Y94.301 E.31894
G3 X134.885 Y94.201 I.002 J-1.351 E.0188
G1 X134.885 Y85.56 E.31197
G2 X134.378 Y85.707 I1.168 J4.982 E.0191
G1 X134.378 Y94.064 E.30171
G1 X133.87 Y93.815 E.02042
G1 X133.87 Y85.948 E.28405
G2 X133.362 Y86.259 I.911 J2.058 E.02156
G1 X133.362 Y93.5 E.26147
G3 X132.854 Y93.091 I.793 J-1.503 E.0237
G1 X132.854 Y86.676 E.23161
G2 X132.346 Y87.253 I5.95 J5.755 E.02775
G1 X132.346 Y92.521 E.19024
G3 X131.838 Y91.599 I2.706 J-2.091 E.03817
G1 X131.838 Y87.689 E.14118
G1 E-.56 F2400
;WIPE_START
G1 F3600
G1 X131.838 Y89.689 E-.24
;WIPE_END
G1 X133.725 Y82.294 Z.6 F30000
G1 X136.637 Y70.88 Z.6
G1 Z.2
G1 E.8 F2400
G1 F3600
G3 X139.372 Y72.231 I-1.705 J6.896 E.11098
G1 X139.372 Y79.155 E.25
G3 X136.569 Y70.873 I-3.412 J-3.46 E.70994
G1 X138.948 Y79.244 F30000
G1 F3600
G1 X138.948 Y72.413 E.24664
G2 X138.44 Y71.995 I-1.321 J1.09 E.02389
G1 X138.44 Y79.391 E.26702
G1 X137.933 Y79.674 E.021
G1 X137.933 Y71.714 E.2874
G2 X137.425 Y71.501 I-.8 J1.193 E.02001
G1 X137.425 Y79.886 E.30274
G3 X136.917 Y80.051 I-.679 J-1.219 E.01941
G1 X136.917 Y71.337 E.31463
G2 X136.409 Y71.27 I-1.102 J6.333 E.0185
G1 X136.409 Y80.114 E.31934
G3 X135.901 Y80.145 I-.333 J-1.285 E.01849
G1 X135.901 Y71.239 E.32155
G2 X135.393 Y71.276 I.15 J5.574 E.01839
G1 X135.393 Y80.11 E.31894
G3 X134.885 Y80.01 I.002 J-1.351 E.0188
G1 X134.885 Y71.369 E.31197
G2 X134.378 Y71.517 I1.168 J4.981 E.0191
G1 X134.378 Y79.873 E.30171
G1 X133.87 Y79.624 E.02042
G1 X133.87 Y71.757 E.28405
G2 X133.362 Y72.068 I.911 J2.058 E.02156
G1 X133.362 Y79.31 E.26147
G3 X132.854 Y78.9 I.793 J-1.503 E.0237
G1 X132.854 Y72.485 E.23161
G2 X132.346 Y73.062 I5.953 J5.758 E.02774
G1 X132.346 Y78.331 E.19024
G3 X131.838 Y77.408 I2.706 J-2.091 E.03817
G1 X131.838 Y73.498 E.14118
G1 E-.56 F2400
;WIPE_START
G1 F3600
G1 X131.838 Y75.498 E-.24
;WIPE_END
G1 X136.593 Y69.528 Z.6 F30000
G1 X150.547 Y52.009 Z.6
G1 Z.2
G1 E.8 F2400
G1 F3600
G3 X151.924 Y52.453 I-.322 J3.352 E.05264
G3 X156.19 Y52.895 I1.72 J4.208 E.16123
G3 X160.461 Y52.403 I2.556 J3.403 E.16274
G3 X166.389 Y56.576 I1.725 J3.847 E.31506
G3 X165.727 Y58.419 I-4.187 J-.464 E.07136
G1 X146.404 Y58.419 E.69766
G3 X150.48 Y51.998 I3.534 J-2.261 E.34376
G1 X165.865 Y57.789 F30000
G1 F3600
G1 X165.865 Y55.111 E.0967
G2 X165.357 Y54.022 I-3.629 J1.03 E.04357
G1 X165.357 Y58.008 E.14393
G1 X164.85 Y58.008 E.01834
G1 X164.85 Y53.426 E.16544
G2 X164.342 Y53.025 I-1.164 J.955 E.02353
G1 X164.342 Y58.008 E.1799
G1 X163.834 Y58.008 E.01834
G1 X163.834 Y52.736 E.19035
G1 X163.326 Y52.534 E.01974
G1 X163.326 Y58.008 E.19766
G1 X162.818 Y58.008 E.01834
G1 X162.818 Y52.439 E.20108
G2 X162.31 Y52.392 I-.361 J1.132 E.01856
G1 X162.31 Y58.008 E.20277
G1 X161.802 Y58.008 E.01834
G1 X161.802 Y52.419 E.20179
G2 X161.294 Y52.53 I-.002 J1.21 E.01892
G1 X161.294 Y58.008 E.19779
G1 X160.787 Y58.008 E.01834
G1 X160.787 Y52.696 E.19179
G3 X160.279 Y52.773 I-.287 J-.178 E.02108
G1 X160.279 Y58.008 E.18901
G1 X159.771 Y58.008 E.01834
G1 X159.771 Y52.585 E.19581
G2 X159.263 Y52.488 I-.491 J1.198 E.01879
G1 X159.263 Y58.008 E.19929
G1 X158.755 Y58.008 E.01834
G1 X158.755 Y52.438 E.2011
G1 X158.247 Y52.482 E.0184
G1 X158.247 Y58.008 E.19953
G1 X157.739 Y58.008 E.01834
G1 X157.739 Y52.591 E.19559
G2 X157.232 Y52.759 I.205 J1.47 E.01942
G1 X157.232 Y58.008 E.18952
G1 X156.724 Y58.008 E.01834
G1 X156.724 Y53.045 E.17918
G1 X156.216 Y53.364 E.02165
G1 X156.216 Y58.008 E.16767
G1 X155.708 Y58.008 E.01834
G1 X155.708 Y53.078 E.17799
G2 X155.2 Y52.791 I-.885 J.97 E.02125
G1 X155.2 Y58.008 E.18838
G1 X154.692 Y58.008 E.01834
G1 X154.692 Y52.613 E.19478
G2 X154.184 Y52.517 I-.465 J1.067 E.01882
G1 X154.184 Y58.008 E.19825
G1 X153.676 Y58.008 E.01834
G1 X153.676 Y52.466 E.2001
G1 X153.169 Y52.523 E.01845
G1 X153.169 Y58.008 E.19803
G1 X152.661 Y58.008 E.01834
G1 X152.661 Y52.632 E.19411
G1 X152.153 Y52.809 E.01943
G1 X152.153 Y58.008 E.1877
G1 X151.645 Y58.008 E.01834
G1 X151.645 Y52.785 E.18858
G1 X151.137 Y52.583 E.01974
G1 X151.137 Y58.008 E.19588
G1 X150.629 Y58.008 E.01834
G1 X150.629 Y52.439 E.20105
G1 X150.121 Y52.356 E.01858
G1 X150.121 Y58.008 E.20405
G1 X149.614 Y58.008 E.01834
G1 X149.614 Y52.374 E.20341
G2 X149.106 Y52.437 I-.111 J1.186 E.01862
G1 X149.106 Y58.008 E.20114
G1 X148.598 Y58.008 E.01834
G1 X148.598 Y52.578 E.19606
